img/00top/原.svg

<svg width="179" height="186" viewBox="0 0 179 186" fill="none" xmlns="http://www.w3.org/2000/svg">
<path d="M158.8 0.199991C159.6 0.199991 161.667 1.46666 165 3.99999C168.467 6.53332 171.667 9.19999 174.6 12C177.533 14.6667 179 16.4667 179 17.4C178.467 19.5333 176.667 20.6 173.6 20.6H102.6C113.533 22.4667 119 24.2 119 25.8C119 26.3333 118.4 26.8667 117.2 27.4L113.8 29L110 35C108.533 37.5333 106.067 41.3333 102.6 46.4H137.2L141.2 40.8C141.6 40.2667 142.2 39.4667 143 38.4C143.933 37.2 144.667 36.3333 145.2 35.8C145.733 35.2667 146.267 35 146.8 35C147.6 35 149.533 36.2 152.6 38.6C155.667 40.8667 158.533 43.3333 161.2 46C163.867 48.6667 165.2 50.4667 165.2 51.4C164.533 52.2 163.467 53 162 53.8C160.533 54.6 158.867 55.2 157 55.6V74.8C157.4 90.8 157.867 103.133 158.4 111.8C157.6 113.133 155.4 114.6 151.8 116.2C148.2 117.667 144.933 118.4 142 118.4H139.2V110.4H115.4V161.4C115.4 166.333 114.8 170.333 113.6 173.4C112.4 176.6 109.933 179.2 106.2 181.2C102.6 183.2 97.2 184.533 90 185.2C89.7333 179.067 88.4 174.8 86 172.4C82.8 169.2 77.0667 167.067 68.8 166V163.2C82.2667 164.133 90.3333 164.6 93 164.6C94.6 164.6 95.7333 164.333 96.4 163.8C97.0667 163.133 97.4 162.2 97.4 161V110.4H73.4V116C73.4 116.667 72.4667 117.533 70.6 118.6C68.8667 119.667 66.8 120.533 64.4 121.2L77 128.6C83.6667 131.4 87 133.4 87 134.6C87 135.267 86.2667 135.733 84.8 136L81.2 136.6C75.2 144.733 67.6 152.533 58.4 160C49.2 167.333 39.2667 173.267 28.6 177.8L26.8 175.4C33.0667 170.2 39.3333 163.867 45.6 156.4C49.7333 151.2 53.4667 145.4 56.8 139C60.1333 132.6 62.4 126.733 63.6 121.4C62 121.8 60.2667 122 58.4 122C57.0667 122 56 121.6 55.2 120.8C54.5333 120 54.2 119.067 54.2 118C54.7333 111.867 55.2 103.533 55.6 93V78.4C55.6 61.6 54.7333 47.9333 53 37.4L74.4 46.4H93.2C94.4 34.4 95.1333 25.8 95.4 20.6H38V64C38 79.8667 37.2667 94.5333 35.8 108C34.4667 121.333 31.2 134.867 26 148.6C20.9333 162.2 13.2667 174.2 3 184.6L0.6 182.8C8.73333 166.933 14.0667 149.333 16.6 130C19.1333 110.667 20.4 88.6667 20.4 64V34.8C20.4 22.8 19.8 12.7333 18.6 4.59999L41 14.8H146.8L152 7.59999C152.533 6.79999 153.333 5.73333 154.4 4.4C155.467 2.93332 156.333 1.86666 157 1.19999C157.667 0.533324 158.267 0.199991 158.8 0.199991ZM139.2 74.8V52.2H73.4V74.8H139.2ZM73.4 104.6H139.2V80.6H73.4V104.6ZM128 127C138.8 129.8 147.667 133.333 154.6 137.6C161.533 141.867 166.533 146.333 169.6 151C172.8 155.667 174.4 160 174.4 164C174.4 167.067 173.6 169.533 172 171.4C170.4 173.4 168.267 174.4 165.6 174.4C163.333 174.4 161 173.667 158.6 172.2C156.2 165.267 151.933 157.8 145.8 149.8C139.667 141.8 133.2 134.733 126.4 128.6L128 127Z" fill="black"/>
</svg>

<svg width="179" height="186" fill="none" xmlns="http://www.w3.org/2000/svg"><path d="M158.8.2c.8 0 2.867 1.267 6.2 3.8a95.292 95.292 0 0 1 9.6 8c2.933 2.667 4.4 4.467 4.4 5.4-.533 2.133-2.333 3.2-5.4 3.2h-71c10.933 1.867 16.4 3.6 16.4 5.2 0 .533-.6 1.067-1.8 1.6l-3.4 1.6-3.8 6c-1.467 2.533-3.933 6.333-7.4 11.4h34.6l4-5.6 1.8-2.4c.933-1.2 1.667-2.067 2.2-2.6.533-.533 1.067-.8 1.6-.8.8 0 2.733 1.2 5.8 3.6a76.167 76.167 0 0 1 8.6 7.4c2.667 2.667 4 4.467 4 5.4-.667.8-1.733 1.6-3.2 2.4-1.467.8-3.133 1.4-5 1.8v19.2c.4 16 .867 28.333 1.4 37-.8 1.333-3 2.8-6.6 4.4-3.6 1.467-6.867 2.2-9.8 2.2h-2.8v-8h-23.8v51c0 4.933-.6 8.933-1.8 12-1.2 3.2-3.667 5.8-7.4 7.8-3.6 2-9 3.333-16.2 4-.267-6.133-1.6-10.4-4-12.8-3.2-3.2-8.933-5.333-17.2-6.4v-2.8c13.467.933 21.533 1.4 24.2 1.4 1.6 0 2.733-.267 3.4-.8.667-.667 1-1.6 1-2.8v-50.6h-24v5.6c0 .667-.933 1.533-2.8 2.6-1.733 1.067-3.8 1.933-6.2 2.6l12.6 7.4c6.667 2.8 10 4.8 10 6 0 .667-.733 1.133-2.2 1.4l-3.6.6c-6 8.133-13.6 15.933-22.8 23.4-9.2 7.333-19.133 13.267-29.8 17.8l-1.8-2.4c6.267-5.2 12.533-11.533 18.8-19 4.133-5.2 7.867-11 11.2-17.4 3.333-6.4 5.6-12.267 6.8-17.6-1.6.4-3.333.6-5.2.6-1.333 0-2.4-.4-3.2-1.2-.667-.8-1-1.733-1-2.8.533-6.133 1-14.467 1.4-25V78.4c0-16.8-.867-30.467-2.6-41l21.4 9h18.8c1.2-12 1.933-20.6 2.2-25.8H38V64c0 15.867-.733 30.533-2.2 44-1.333 13.333-4.6 26.867-9.8 40.6-5.067 13.6-12.733 25.6-23 36l-2.4-1.8c8.133-15.867 13.467-33.467 16-52.8 2.533-19.333 3.8-41.333 3.8-66V34.8c0-12-.6-22.067-1.8-30.2L41 14.8h105.8l5.2-7.2c.533-.8 1.333-1.867 2.4-3.2 1.067-1.467 1.933-2.533 2.6-3.2.667-.667 1.267-1 1.8-1Zm-19.6 74.6V52.2H73.4v22.6h65.8Zm-65.8 29.8h65.8v-24H73.4v24ZM128 127c10.8 2.8 19.667 6.333 26.6 10.6 6.933 4.267 11.933 8.733 15 13.4 3.2 4.667 4.8 9 4.8 13 0 3.067-.8 5.533-2.4 7.4-1.6 2-3.733 3-6.4 3-2.267 0-4.6-.733-7-2.2-2.4-6.933-6.667-14.4-12.8-22.4-6.133-8-12.6-15.067-19.4-21.2l1.6-1.6Z" fill="#000"/></svg>
